icons/Square.svg

<svg width="24" height="24" viewBox="0 0 24 24" fill="none" xmlns="http://www.w3.org/2000/svg">
<path fill-rule="evenodd" clip-rule="evenodd" d="M4.25,7c0,-1.51878 1.23122,-2.75 2.75,-2.75h10c1.5188,0 2.75,1.23122 2.75,2.75v10c0,1.5188 -1.2312,2.75 -2.75,2.75h-10c-1.51878,0 -2.75,-1.2312 -2.75,-2.75zM7,5.75c-0.69036,0 -1.25,0.55964 -1.25,1.25v10c0,0.6904 0.55964,1.25 1.25,1.25h10c0.6904,0 1.25,-0.5596 1.25,-1.25v-10c0,-0.69036 -0.5596,-1.25 -1.25,-1.25z" fill="#002B51"/>
</svg>

<svg width="24" height="24" viewBox="0 0 24 24" fill="none" xmlns="http://www.w3.org/2000/svg">
<path fill-rule="evenodd" clip-rule="evenodd" d="M4.25 7C4.25 5.48122 5.48122 4.25 7 4.25H17C18.5188 4.25 19.75 5.48122 19.75 7V17C19.75 18.5188 18.5188 19.75 17 19.75H7C5.48122 19.75 4.25 18.5188 4.25 17V7ZM7 5.75C6.30964 5.75 5.75 6.30964 5.75 7V17C5.75 17.6904 6.30964 18.25 7 18.25H17C17.6904 18.25 18.25 17.6904 18.25 17V7C18.25 6.30964 17.6904 5.75 17 5.75H7Z" fill="#002B51"/>
</svg>
